dist/images/jquery.svg

<svg width="128" height="128" fill="none" xmlns="http://www.w3.org/2000/svg"><path d="M27.758 20.421c-7.352 10.565-6.437 24.312-.82 35.54l.411.798.263.506.164.291.293.524c.174.307.353.612.536.919l.306.504c.203.326.41.65.622.973l.265.409c.293.437.592.872.901 1.301l.026.033.152.205c.267.368.542.732.821 1.093l.309.393c.249.313.502.623.759.934l.29.346c.345.406.698.812 1.057 1.208l.021.022.041.045c.351.383.71.758 1.075 1.133l.344.347c.282.284.569.563.858.841l.351.334c.387.364.777.722 1.176 1.07l.018.016.205.174c.351.305.708.605 1.068.902l.442.353c.294.235.591.468.89.696l.477.361c.33.243.663.482.999.717l.363.258.101.072c.318.22.645.431.97.642l.42.28c.5.315 1.007.628 1.519.93l.42.237c.377.217.756.431 1.14.639l.631.326.816.424.188.091.334.161c.427.204.858.405 1.293.599l.273.122c.498.218 1.001.427 1.508.628l.368.144c.469.182.945.359 1.423.527l.179.062c.524.184 1.054.353 1.587.52l.383.114c.542.164 1.079.358 1.638.462 35.553 6.483 45.88-21.364 45.88-21.364-8.674 11.3-24.069 14.28-38.656 10.962-.553-.125-1.089-.298-1.628-.456l-.406-.124a44.793 44.793 0 01-1.568-.51l-.215-.077a49.537 49.537 0 01-1.382-.513l-.388-.152c-.501-.198-1-.405-1.492-.62l-.298-.133a55.398 55.398 0 01-1.259-.585l-.364-.175c-.327-.159-.65-.328-.974-.495l-.649-.341c-.395-.21-.782-.43-1.167-.654l-.394-.219a58.203 58.203 0 01-1.52-.932l-.41-.273a40.515 40.515 0 01-1.081-.719l-.349-.245a54.203 54.203 0 01-1.022-.738l-.453-.343c-.31-.237-.618-.476-.922-.721l-.411-.33c-.388-.318-.771-.64-1.149-.969l-.126-.105a54.797 54.797 0 01-1.208-1.098l-.34-.328a33.158 33.158 0 01-.868-.851l-.34-.34c-.362-.37-.717-.745-1.065-1.126l-.053-.057a41.973 41.973 0 01-1.08-1.229l-.283-.336a44.66 44.66 0 01-.777-.961l-.285-.355a52.469 52.469 0 01-.898-1.195c-8.098-11.047-11.008-26.283-4.535-38.795m17.081-1.626c-5.316 7.65-5.028 17.893-.88 25.983a33.747 33.747 0 002.351 3.925c.796 1.143 1.68 2.501 2.737 3.418.383.422.784.834 1.193 1.238l.314.311c.397.385.801.764 1.218 1.132l.05.043.012.012c.462.405.939.794 1.423 1.178l.323.252c.486.372.981.738 1.489 1.087l.043.033.68.447.322.213c.363.233.73.459 1.104.676l.156.092c.322.185.648.367.975.545l.347.18.682.354.103.047c.469.23.941.453 1.424.663l.314.13c.386.163.775.323 1.167.473l.5.184c.356.132.712.253 1.072.373l.484.155c.511.158 1.017.359 1.549.448 27.45 4.547 33.787-16.588 33.787-16.588-5.712 8.228-16.775 12.153-28.58 9.089a34.726 34.726 0 01-1.555-.449l-.467-.151a29 29 0 01-1.087-.374l-.491-.183a38.673 38.673 0 01-1.171-.473l-.315-.133a32.78 32.78 0 01-1.432-.666l-.718-.365-.414-.213c-.306-.166-.61-.338-.909-.514l-.217-.123a30.75 30.75 0 01-1.1-.672l-.332-.221-.712-.472a37.364 37.364 0 01-1.484-1.085l-.334-.264c-5.167-4.079-9.263-9.655-11.21-15.977-2.041-6.557-1.601-13.917 1.935-19.891m14.847-.518c-3.134 4.612-3.442 10.341-1.267 15.435 2.293 5.407 6.992 9.648 12.477 11.66l.682.235.3.096c.323.102.644.22.978.282 15.157 2.929 19.268-7.777 20.362-9.354-3.601 5.185-9.653 6.43-17.079 4.627a18.837 18.837 0 01-1.796-.555 22.303 22.303 0 01-2.134-.886 22.19 22.19 0 01-3.741-2.282c-6.645-5.042-10.772-14.659-6.436-22.492m-5.758 94.661h-4.226a.556.556 0 00-.517.417l-1.5 6.94-1.5 6.94a.554.554 0 01-.516.417h-2.991c-2.959 0-2.617-2.047-2.011-4.851l.018-.085.066-.354.012-.066.135-.72.145-.771.154-.785.682-3.332.683-3.332a.336.336 0 00-.341-.419h-4.337a.55.55 0 00-.514.418l-.933 4.424-.932 4.425-.002.006-.086.412c-1.074 4.903-.79 9.58 5.048 9.727l.17.003h9.163a.554.554 0 00.516-.417l1.976-9.289 1.976-9.29c.049-.23-.103-.417-.338-.418zm-45.256-.049h-4.64a.562.562 0 00-.521.416l-.44 1.942-.44 1.942c-.051.229.098.416.333.416h4.676a.556.556 0 00.518-.417l.425-1.941.425-1.941c.049-.229-.101-.417-.336-.417zm-1.346 6.044H15.08a.563.563 0 00-.521.416l-.657 2.91-.656 2.909-.183.834-.631 2.97-.63 2.971c-.049.229-.15.599-.225.821 0 0-.874 2.6-2.343 2.57l-.184-.004-1.271-.023a.56.56 0 00-.525.407l-.485 2.039-.484 2.038c-.055.228.093.416.326.42.833.01 2.699.031 3.828.031 3.669 0 5.604-2.033 6.843-7.883l1.451-6.714 1.361-6.297c.049-.227-.103-.415-.337-.415zm86.117-1.574l-.194-.801-.191-.82-.097-.414c-.38-1.477-1.495-2.328-3.917-2.328l-3.77-.004-3.472-.005h-3.907a.552.552 0 00-.515.417l-.173.816-.204.964-.057.271-1.759 8.24-1.67 7.822c-.05.23-.066.512-.038.626.028.115.479.209.713.209h3.524c.235 0 .532-.042.66-.094s.317-.513.364-.742l.626-3.099.627-3.1.001-.005.084-.413.76-3.56.671-3.144a.555.555 0 01.515-.417l11.089-.005c.235.002.383-.185.33-.414zm14.275-7.24l-.854.003h-3.549a.904.904 0 00-.667.353l-7.849 11.498c-.132.194-.283.166-.335-.062l-.578-2.533a.562.562 0 00-.522-.416h-5.045c-.235 0-.374.184-.31.409l2.261 7.921c.064.226.069.596.011.824l-.985 3.833c-.059.228.085.413.32.413h4.987a.58.58 0 00.532-.413l.986-3.833a2.52 2.52 0 01.363-.755l12.742-16.911c.142-.188.065-.341-.169-.339l-1.339.008zm-40.086 9.919v-.004a.514.514 0 01-.499.441h-6.397c-.222 0-.334-.15-.301-.336l.006-.015-.004.002.003-.021.029-.109c.611-1.624 1.855-2.69 4.194-2.69 2.634-.001 3.148 1.285 2.969 2.732zm-1.877-7.384c-8.211 0-10.157 4.984-11.249 10.015-1.091 5.128-.998 9.921 7.5 9.921h1.03l.256-.001h.06l1.02-.003h.018c2.244-.009 4.495-.026 5.406-.033a.553.553 0 00.509-.42l.344-1.681.067-.327.41-2.006a.335.335 0 00-.341-.418h-7.639c-3.039 0-3.941-.807-3.608-3.181H84.18l-.001.001.008-.001a.503.503 0 00.445-.315l.029-.106-.001.001c1.813-6.839 1.293-11.445-6.474-11.446zm-38.81 7.358l-.116.409-.922 3.269-.922 3.267a.596.596 0 01-.543.411h-4.88c-3.702 0-4.604-2.896-3.702-7.166.901-4.368 2.668-7.083 6.312-7.358 4.98-.376 5.976 3.126 4.773 7.168zm3.348 7.105s2.301-5.588 2.823-8.814c.713-4.319-1.45-10.585-9.804-10.585-8.306 0-11.914 5.981-13.29 12.484-1.376 6.55.427 12.293 8.686 12.246l6.516-.024 6.089-.022a.59.59 0 00.534-.414l1.061-4.046c.059-.228-.084-.414-.319-.416l-1.017-.006-1.017-.006c-.199-.001-.313-.131-.289-.302l.027-.095zm41.12-3.741a.28.28 0 11-.56.001.28.28 0 01.56-.001z" fill="#fff"/></svg>

<svg width="128" height="128" viewBox="0 0 128 128" fill="none" xmlns="http://www.w3.org/2000/svg">
<path d="M27.758 20.421C20.406 30.986 21.321 44.733 26.938 55.961L27.349 56.759L27.612 57.265L27.776 57.556L28.069 58.08C28.243 58.387 28.422 58.692 28.605 58.999L28.911 59.503C29.114 59.829 29.321 60.153 29.533 60.476L29.798 60.885C30.091 61.322 30.39 61.757 30.699 62.186L30.725 62.219L30.877 62.424C31.144 62.792 31.419 63.156 31.698 63.517L32.007 63.91C32.256 64.223 32.509 64.533 32.766 64.844L33.056 65.19C33.401 65.596 33.754 66.002 34.113 66.398L34.134 66.42L34.175 66.465C34.526 66.848 34.885 67.223 35.25 67.598L35.594 67.945C35.876 68.229 36.163 68.508 36.452 68.786L36.803 69.12C37.19 69.484 37.58 69.842 37.979 70.19L37.997 70.206L38.202 70.38C38.553 70.685 38.91 70.985 39.27 71.282L39.712 71.635C40.006 71.87 40.303 72.103 40.602 72.331L41.079 72.692C41.409 72.935 41.742 73.174 42.078 73.409L42.441 73.667L42.542 73.739C42.86 73.959 43.187 74.17 43.512 74.381L43.932 74.661C44.432 74.976 44.939 75.289 45.451 75.591L45.871 75.828C46.248 76.045 46.627 76.259 47.011 76.467L47.642 76.793L48.458 77.217L48.646 77.308L48.98 77.469C49.407 77.673 49.838 77.874 50.273 78.068L50.546 78.19C51.044 78.408 51.547 78.617 52.054 78.818L52.422 78.962C52.891 79.144 53.367 79.321 53.845 79.489L54.024 79.551C54.548 79.735 55.078 79.904 55.611 80.071L55.994 80.185C56.536 80.349 57.073 80.543 57.632 80.647C93.185 87.13 103.512 59.283 103.512 59.283C94.838 70.583 79.443 73.563 64.856 70.245C64.303 70.12 63.767 69.947 63.228 69.789L62.822 69.665C62.296 69.504 61.773 69.335 61.254 69.155L61.039 69.078C60.574 68.914 60.115 68.742 59.657 68.565L59.269 68.413C58.768 68.215 58.269 68.008 57.777 67.793L57.479 67.66C57.056 67.469 56.637 67.276 56.22 67.075L55.856 66.9C55.529 66.741 55.206 66.572 54.882 66.405L54.233 66.064C53.838 65.854 53.451 65.634 53.066 65.41L52.672 65.191C52.159 64.888 51.653 64.576 51.152 64.259L50.742 63.986C50.379 63.752 50.017 63.513 49.661 63.267L49.312 63.022C48.968 62.78 48.627 62.533 48.29 62.284L47.837 61.941C47.527 61.704 47.219 61.465 46.915 61.22L46.504 60.89C46.116 60.572 45.733 60.25 45.355 59.921L45.229 59.816C44.82 59.457 44.418 59.088 44.021 58.718L43.681 58.39C43.387 58.111 43.097 57.829 42.813 57.539L42.473 57.199C42.111 56.829 41.756 56.454 41.408 56.073L41.355 56.016C40.987 55.614 40.627 55.203 40.275 54.787L39.992 54.451C39.729 54.135 39.469 53.813 39.215 53.49L38.93 53.135C38.623 52.738 38.325 52.342 38.032 51.94C29.934 40.893 27.024 25.657 33.497 13.145M50.578 11.519C45.262 19.169 45.55 29.412 49.698 37.502C50.393 38.858 51.175 40.175 52.049 41.427C52.845 42.57 53.729 43.928 54.786 44.845C55.169 45.267 55.57 45.679 55.979 46.083L56.293 46.394C56.69 46.779 57.094 47.158 57.511 47.526L57.561 47.569L57.573 47.581C58.035 47.986 58.512 48.375 58.996 48.759L59.319 49.011C59.805 49.383 60.3 49.749 60.808 50.098L60.851 50.131L61.531 50.578L61.853 50.791C62.216 51.024 62.583 51.25 62.957 51.467L63.113 51.559C63.435 51.744 63.761 51.926 64.088 52.104L64.435 52.284L65.117 52.638L65.22 52.685C65.689 52.915 66.161 53.138 66.644 53.348L66.958 53.478C67.344 53.641 67.733 53.801 68.125 53.951L68.625 54.135C68.981 54.267 69.337 54.388 69.697 54.508L70.181 54.663C70.692 54.821 71.198 55.022 71.73 55.111C99.18 59.658 105.517 38.523 105.517 38.523C99.805 46.751 88.742 50.676 76.937 47.612C76.413 47.474 75.895 47.324 75.382 47.163L74.915 47.012C74.55 46.895 74.187 46.769 73.828 46.638L73.337 46.455C72.943 46.303 72.553 46.146 72.166 45.982L71.851 45.849C71.366 45.638 70.889 45.415 70.419 45.183L69.701 44.818L69.287 44.605C68.981 44.439 68.677 44.267 68.378 44.091L68.161 43.968C67.789 43.751 67.423 43.528 67.061 43.296L66.729 43.075L66.017 42.603C65.511 42.254 65.018 41.889 64.533 41.518L64.199 41.254C59.032 37.175 54.936 31.599 52.989 25.277C50.948 18.72 51.388 11.36 54.924 5.38597M69.771 4.86797C66.637 9.47997 66.329 15.209 68.504 20.303C70.797 25.71 75.496 29.951 80.981 31.963L81.663 32.198L81.963 32.294C82.286 32.396 82.607 32.514 82.941 32.576C98.098 35.505 102.209 24.799 103.303 23.222C99.702 28.407 93.65 29.652 86.224 27.849C85.638 27.707 84.993 27.495 84.428 27.294C83.703 27.035 82.989 26.741 82.294 26.408C80.976 25.774 79.719 25.006 78.553 24.126C71.908 19.084 67.781 9.46697 72.117 1.63397" fill="white"/>
<path d="M66.359 96.295H62.133C61.899 96.295 61.666 96.483 61.616 96.712L60.116 103.652L58.616 110.592C58.567 110.821 58.334 111.009 58.1 111.009H55.109C52.15 111.009 52.492 108.962 53.098 106.158L53.116 106.073L53.182 105.719L53.194 105.653L53.329 104.933L53.474 104.162L53.628 103.377L54.31 100.045L54.993 96.713C55.04 96.483 54.886 96.294 54.652 96.294H50.315C50.081 96.294 49.849 96.482 49.801 96.712L48.868 101.136L47.936 105.561L47.934 105.567L47.848 105.979C46.774 110.882 47.058 115.559 52.896 115.706L53.066 115.709H62.229C62.463 115.709 62.696 115.521 62.745 115.292L64.721 106.003L66.697 96.713C66.746 96.483 66.594 96.296 66.359 96.295ZM21.103 96.246H16.463C16.228 96.246 15.994 96.434 15.942 96.662L15.502 98.604L15.062 100.546C15.011 100.775 15.16 100.962 15.395 100.962H20.071C20.306 100.962 20.539 100.774 20.589 100.545L21.014 98.604L21.439 96.663C21.488 96.434 21.338 96.246 21.103 96.246ZM19.757 102.29H15.08C14.846 102.29 14.611 102.478 14.559 102.706L13.902 105.616L13.246 108.525L13.063 109.359L12.432 112.329L11.802 115.3C11.753 115.529 11.652 115.899 11.577 116.121C11.577 116.121 10.703 118.721 9.23399 118.691L9.04999 118.687L7.77899 118.664C7.54499 118.661 7.30899 118.844 7.25399 119.071L6.76899 121.11L6.28499 123.148C6.22999 123.376 6.37799 123.564 6.61099 123.568C7.44399 123.578 9.30999 123.599 10.439 123.599C14.108 123.599 16.043 121.566 17.282 115.716L18.733 109.002L20.094 102.705C20.143 102.478 19.991 102.29 19.757 102.29ZM105.874 100.716L105.68 99.915L105.489 99.095L105.392 98.681C105.012 97.204 103.897 96.353 101.475 96.353L97.705 96.349L94.233 96.344H90.326C90.092 96.344 89.86 96.532 89.811 96.761L89.638 97.577L89.434 98.541L89.377 98.812L87.618 107.052L85.948 114.874C85.898 115.104 85.882 115.386 85.91 115.5C85.938 115.615 86.389 115.709 86.623 115.709H90.147C90.382 115.709 90.679 115.667 90.807 115.615C90.935 115.563 91.124 115.102 91.171 114.873L91.797 111.774L92.424 108.674L92.425 108.669L92.509 108.256L93.269 104.696L93.94 101.552C93.99 101.323 94.221 101.136 94.455 101.135L105.544 101.13C105.779 101.132 105.927 100.945 105.874 100.716ZM120.149 93.476L119.295 93.479H115.746C115.511 93.479 115.21 93.638 115.079 93.832L107.23 105.33C107.098 105.524 106.947 105.496 106.895 105.268L106.317 102.735C106.265 102.506 106.03 102.319 105.795 102.319H100.75C100.515 102.319 100.376 102.503 100.44 102.728L102.701 110.649C102.765 110.875 102.77 111.245 102.712 111.473L101.727 115.306C101.668 115.534 101.812 115.719 102.047 115.719H107.034C107.268 115.719 107.508 115.533 107.566 115.306L108.552 111.473C108.61 111.244 108.773 110.906 108.915 110.718L121.657 93.807C121.799 93.619 121.722 93.466 121.488 93.468L120.149 93.476ZM80.063 103.395V103.391C80.034 103.645 79.799 103.832 79.564 103.832H73.167C72.945 103.832 72.833 103.682 72.866 103.496L72.872 103.481L72.868 103.483L72.871 103.462L72.9 103.353C73.511 101.729 74.755 100.663 77.094 100.663C79.728 100.662 80.242 101.948 80.063 103.395ZM78.186 96.011C69.975 96.011 68.029 100.995 66.937 106.026C65.846 111.154 65.939 115.947 74.437 115.947H75.467L75.723 115.946H75.783L76.803 115.943H76.821C79.065 115.934 81.316 115.917 82.227 115.91C82.46 115.906 82.688 115.719 82.736 115.49L83.08 113.809L83.147 113.482L83.557 111.476C83.604 111.247 83.451 111.058 83.216 111.058H75.577C72.538 111.058 71.636 110.251 71.969 107.877H84.18L84.179 107.878L84.187 107.877C84.381 107.874 84.561 107.74 84.632 107.562L84.661 107.456L84.66 107.457C86.473 100.618 85.953 96.012 78.186 96.011ZM39.376 103.369L39.26 103.778L38.338 107.047L37.416 110.314C37.353 110.541 37.108 110.725 36.873 110.725H31.993C28.291 110.725 27.389 107.829 28.291 103.559C29.192 99.191 30.959 96.476 34.603 96.201C39.583 95.825 40.579 99.327 39.376 103.369ZM42.724 110.474C42.724 110.474 45.025 104.886 45.547 101.66C46.26 97.341 44.097 91.075 35.743 91.075C27.437 91.075 23.829 97.056 22.453 103.559C21.077 110.109 22.88 115.852 31.139 115.805L37.655 115.781L43.744 115.759C43.978 115.757 44.218 115.571 44.278 115.345L45.339 111.299C45.398 111.071 45.255 110.885 45.02 110.883L44.003 110.877L42.986 110.871C42.787 110.87 42.673 110.74 42.697 110.569L42.724 110.474ZM83.844 106.733C83.844 106.888 83.719 107.014 83.564 107.014C83.41 107.014 83.284 106.888 83.284 106.733C83.284 106.579 83.409 106.454 83.564 106.454C83.719 106.454 83.844 106.579 83.844 106.733Z" fill="white"/>
</svg>
